Dominus_Dark_Funeral/22/apps/alienarena.svg

<svg xmlns="http://www.w3.org/2000/svg" width="24" height="24" viewBox="0 0 6.35 6.35"><path d="M3.4.1a3.33 3.33 0 0 0-.22 0C2.42.1 1.8.23 1.36.52a1.8 1.8 0 0 0-.82 1.6c0 .95.76 2.2 1 2.57.26.42.55.8.8 1.06.34.35.6.51.84.51s.5-.16.83-.5c.26-.28.55-.65.81-1.07.24-.36.99-1.62.99-2.56 0-.7-.28-1.26-.81-1.6A3.33 3.33 0 0 0 3.4.08zm1.36 2.27c.1 0 .22 0 .32.03a1.3 1.3 0 0 1-1.55 1.55 1.3 1.3 0 0 1 1.23-1.58zM1.6 2.4a1.3 1.3 0 0 1 1.24 1.56 1.32 1.32 0 0 1-1.2-.36 1.28 1.28 0 0 1-.36-1.17c.1-.02.21-.03.32-.03z" fill="#e6e6e6"/></svg>

<?xml version="1.0" encoding="UTF-8" standalone="no"?>
<svg
   xmlns:dc="http://purl.org/dc/elements/1.1/"
   xmlns:cc="http://creativecommons.org/ns#"
   xmlns:rdf="http://www.w3.org/1999/02/22-rdf-syntax-ns#"
   xmlns:svg="http://www.w3.org/2000/svg"
   xmlns="http://www.w3.org/2000/svg"
   xmlns:sodipodi="http://sodipodi.sourceforge.net/DTD/sodipodi-0.dtd"
   xmlns:inkscape="http://www.inkscape.org/namespaces/inkscape"
   width="24"
   height="24"
   viewBox="0 0 6.35 6.35"
   version="1.1"
   id="svg4"
   sodipodi:docname="alienarena.svg"
   inkscape:version="0.92.4 (5da689c313, 2019-01-14)">
  <metadata
     id="metadata10">
    <rdf:RDF>
      <cc:Work
         rdf:about="">
        <dc:format>image/svg+xml</dc:format>
        <dc:type
           rdf:resource="http://purl.org/dc/dcmitype/StillImage" />
        <dc:title></dc:title>
      </cc:Work>
    </rdf:RDF>
  </metadata>
  <defs
     id="defs8" />
  <sodipodi:namedview
     pagecolor="#ffffff"
     bordercolor="#666666"
     borderopacity="1"
     objecttolerance="10"
     gridtolerance="10"
     guidetolerance="10"
     inkscape:pageopacity="0"
     inkscape:pageshadow="2"
     inkscape:window-width="1142"
     inkscape:window-height="480"
     id="namedview6"
     showgrid="false"
     inkscape:zoom="9.8333333"
     inkscape:cx="1.2711864"
     inkscape:cy="12"
     inkscape:window-x="0"
     inkscape:window-y="25"
     inkscape:window-maximized="0"
     inkscape:current-layer="svg4" />
  <path
     d="m 3.4,0.1 a 3.33,3.33 0 0 0 -0.22,0 C 2.42,0.1 1.8,0.23 1.36,0.52 a 1.8,1.8 0 0 0 -0.82,1.6 c 0,0.95 0.76,2.2 1,2.57 0.26,0.42 0.55,0.8 0.8,1.06 0.34,0.35 0.6,0.51 0.84,0.51 0.24,0 0.5,-0.16 0.83,-0.5 C 4.27,5.48 4.56,5.11 4.82,4.69 5.06,4.33 5.81,3.07 5.81,2.13 5.81,1.43 5.53,0.87 5,0.53 A 3.33,3.33 0 0 0 3.4,0.08 Z m 1.36,2.27 c 0.1,0 0.22,0 0.32,0.03 A 1.3,1.3 0 0 1 3.53,3.95 1.3,1.3 0 0 1 4.76,2.37 Z M 1.6,2.4 A 1.3,1.3 0 0 1 2.84,3.96 1.32,1.32 0 0 1 1.64,3.6 1.28,1.28 0 0 1 1.28,2.43 C 1.38,2.41 1.49,2.4 1.6,2.4 Z"
     id="path2"
     inkscape:connector-curvature="0"
     style="fill:#e6e6e6" />
</svg>
